!!!COM: Music21
!!!OTL: Jota de Barbeito
!!!OMV: pezas_jotas_jota-de-barbeito_jota-de-barbeito-partitura.musicxml
**kern
*I"Bagpipes
*I'Bag
*clefG^2
*k[]
*M3/4
=1
!LO:TX:a:t=Prestissimo
*MM200
!LO:TX:a:t=[quarter]=200
4r
8cccL
8bbJ
8aaL
8ggJ
=||
4ee
8ccL
8eeJ
8ccL
8eeJ
=
4gg
8cccL
8bbJ
8aaL
8ggJ
=
4ee
8ccL
8eeJ
8ccL
8eeJ
=
4dd
8bbL
8aaJ
8ggL
8ffJ
=
4dd
8bL
8ddJ
8bL
8ddJ
=
4ff
8bbL
8aaJ
8ggL
8ffJ
=
4dd
8ggL
8eeJ
[4cc
!!linebreak:original
=
4cc]
8cccL
8bbJ
8aaL
8ggJ
=||
4ee
8ccL
8eeJ
8ccL
8eeJ
=
4gg
8cccL
8bbJ
8aaL
8ggJ
=
4ee
8ccL
8eeJ
8ccL
8eeJ
=
4dd
8bbL
8aaJ
8ggL
8ffJ
=
4dd
8bL
8ddJ
8bL
8ddJ
=
4ff
8bbL
8aaJ
8ggL
8ffJ
=
4dd
8ggL
8eeJ
[4cc
=
2.cc_
!!linebreak:original
=||
4cc]
8eeL
8ggJ
4ccc
=
4gg
4.bb
8aa
=
4gg
8ggL
8eeJ
[4cc
=
2.cc_
=
4cc]
8eeL
8ggJ
4ccc
=
4gg
4.bb
8aa
=
4gg
8ggL
8ffJ
[4dd
=
2.dd_
!!linebreak:original
=
4dd]
8ffL
8ggJ
4bb
=||
4gg
4.bb
8aa
=
4gg
8ggL
8ffJ
[4dd
=
4dd]
8ffL
8eeJ
8ffL
8ggJ
=
4bb
8aaL
8ggJ
[4ff
=
4ff]
8ddL
8ffJ
8ddL
8ffJ
=
4aaM
8ggL
8eeJ
[4cc
=
4cc]
8eeL
8ggJ
4ccc
=||
4gg
4.bb
8aa
=
4gg
8ggL
8ffJ
[4dd
!!linebreak:original
=
4dd]
8ffL
8eeJ
8ffL
8ggJ
=
4bb
8aaL
8ggJ
[4ff
=
4ff]
8ddL
8ffJ
8ddL
8ffJ
=
4aaM
8ggL
8eeJ
[4cc
=
2.cc_
!!linebreak:original
=
4cc]
8cccL
8bbJ
8aaL
8ggJ
=||
4ee
8ccL
8eeJ
8ccL
8eeJ
=
4gg
8cccL
8bbJ
8aaL
8ggJ
=
4ee
8ccL
8eeJ
8ccL
8eeJ
=
4dd
8bbL
8aaJ
8ggL
8ffJ
=
4dd
8bL
8ddJ
8bL
8ddJ
=
4ff
8bbL
8aaJ
8ggL
8ffJ
=
4dd
8ggL
8eeJ
[4cc
!!linebreak:original
=
4cc]
8cccL
8bbJ
8aaL
8ggJ
=||
4ee
8ccL
8eeJ
8ccL
8eeJ
=
4gg
8cccL
8bbJ
8aaL
8ggJ
=
4ee
8ccL
8eeJ
8ccL
8eeJ
=
4dd
8bbL
8aaJ
8ggL
8ffJ
=
4dd
8bL
8ddJ
8bL
8ddJ
=
4ff
8bbL
8aaJ
8ggL
8ffJ
=
4dd
8ggL
8eeJ
[4cc
!!linebreak:original
=||
*k[b-e-a-]
*E-:
4cc]
8ccL
8ddJ
4ee-
=
4ff
4gg
4aa-
=
4bb-
4aa-M
[4gg
=
2.gg]
=
4ccc
8bb-L
8aa-J
4gg
=
4ff
4ee-
4cc
=
4ff
4ee-M
[4cc
=
2.cc_
=
4cc]
8ccL
8ddJ
4ee-
!!linebreak:original
=||
4ff
4gg
4aa-
=
4bb-
4aa-M
[4gg
=
4gg]
8ffL
8ggJ
8aa-L
8ggJ
=
4ff
8ggL
8ffJ
[4ee-
=
4ee-]
8ddL
8ee-J
8ddL
8ee-J
=
4dd
8ee-L
8ddJ
[4cc
=
2.cc_
=
4cc]
8ccL
8ddJ
4ee-
!!linebreak:original
=||
4ff
4gg
4aa-
=
4bb-
4aa-M
[4gg
=
4gg]
8ffL
8ggJ
8aa-L
8ggJ
=
4ff
8ggL
8ffJ
[4ee-
=
4ee-]
8ddL
8ee-J
8ddL
8ee-J
=
4dd
8ee-L
8ddJ
[4cc
=
*k[]
*C:
4cc]
8cccL
8bbJ
8aaL
8ggJ
!!linebreak:original
=||
4dd
8ggL
8eeJ
[4cc
=
4cc]
4ee
4gg
=
[2.ccc
=
8ccc]
8r
2r
==
*-
